X:1
T:Mara, CM
T:Mara, CM
T:Charles Beecher, 1855
T:Public Domain Courtesy of the Cyber Hymnal™
C:Charles Beecher, 1855
Z:Public Domain
Z:Courtesy of the Cyber Hymnal™
%%score ( 1 2 ) ( 3 4 )
L:1/8
Q:1/4=93
M:2/4
K:D
V:1 treble 
V:2 treble 
V:3 bass 
V:4 bass 
V:1
 [Fd]2 [DF]>[DB] | [DA]3 [DB] | [DF]2 (E>F) | D3 ([CE]/[DF]/) | [EG]2 [Ee]2 | (d>c) (B>c) | [CA]4 | %7
 [FA]2 [FA]>[GB] | [FA]2 ([EG]>[DF]) | [CE]2 ([Ge]>[Fd]) | [Ec]4 | [Dd]2 [DF]>[EB] | %12
 ([FA]>[DF]) ([EA]>[CE]) | D4 |] %14
V:2
 x4 | x4 | x2 C2 | D3 x | x4 | F2 D2 | x4 | x4 | x4 | x4 | x4 | x4 | x4 | D4 |] %14
V:3
 [D,A,]2 [D,A,]>[D,G,] | [D,F,]3 [D,G,] | [A,,A,]2 [A,,G,]2 | [D,F,]3 A, | [E,A,]2 [C,A,]2 | %5
 [F,A,]2 [E,^G,]2 | [A,,A,]4 | (A,>D) A,>A, | (A,>D) A,2 | (A,>E) A,2 | A,4 | %11
 [F,A,]2 [G,B,]>[G,D] | (D>A,) [A,,G,]2 | [D,F,]4 |] %14
V:4
 x4 | x4 | x4 | x3 (G,/F,/) | x4 | x4 | x4 | x4 | x4 | x4 | x4 | x4 | A,2 x2 | x4 |] %14

